svg/fluentui-system-icons/ic_fluent_call_warning_16_filled.svg

<svg width="16" height="16" viewBox="0 0 16 16" fill="none" xmlns="http://www.w3.org/2000/svg">
<path d="M12.3736 0.572945L15.8811 6.88622C16.1588 7.38612 15.7973 8.00045 15.2255 8.00046L7.76867 8.00055C7.19661 8.00056 6.83514 7.38584 7.11325 6.88593L10.6256 0.572439C11.0069 -0.112915 11.9928 -0.11263 12.3736 0.572945ZM11.4932 7.00072C11.7693 7.00072 11.9932 6.77686 11.9932 6.50072C11.9932 6.22457 11.7693 6.00072 11.4932 6.00072C11.217 6.00072 10.9932 6.22457 10.9932 6.50072C10.9932 6.77686 11.217 7.00072 11.4932 7.00072ZM10.9932 2.00067V4.50069C10.9932 4.77683 11.217 5.00069 11.4932 5.00069C11.7693 5.00069 11.9932 4.77683 11.9932 4.50069V2.00067C11.9932 1.72453 11.7693 1.50067 11.4932 1.50067C11.217 1.50067 10.9932 1.72452 10.9932 2.00067ZM6.82888 6.0394L5.75619 7.02333C5.77702 7.09701 5.80292 7.18339 5.83433 7.27943C5.94055 7.60417 6.10659 8.02954 6.34658 8.44522C6.58657 8.8609 6.87193 9.21738 7.10006 9.47173C7.16753 9.54696 7.22939 9.61258 7.28278 9.66746L8.67123 9.23045C9.44901 8.98565 10.2975 9.23753 10.8158 9.86705L11.6564 10.8881C12.294 11.6627 12.219 12.7996 11.4852 13.4838C10.1662 14.7135 8.11604 15.0401 6.6816 13.7342C5.73194 12.8696 4.62409 11.6368 3.65402 9.96924C2.68561 8.30449 2.17505 6.74059 1.908 5.49465C1.50193 3.60005 2.82092 2.00528 4.53712 1.48041C5.5051 1.18437 6.53635 1.69244 6.89146 2.64034L7.34984 3.86388C7.6359 4.62745 7.42977 5.48822 6.82888 6.0394Z" fill="#212121"/>
</svg>

<svg xmlns="http://www.w3.org/2000/svg" width="16" height="16"><path d="m12.374.573 3.507 6.313A.75.75 0 0 1 15.226 8H7.769a.75.75 0 0 1-.656-1.114L10.626.572a1 1 0 0 1 1.748 0ZM11.494 7a.5.5 0 1 0 0-1 .5.5 0 0 0 0 1Zm-.5-5v2.5a.5.5 0 1 0 1 0V2a.5.5 0 0 0-1 0ZM6.828 6.039l-1.073.984a6.619 6.619 0 0 0 .59 1.422 6.267 6.267 0 0 0 .937 1.222L8.67 9.23a2 2 0 0 1 2.145.637l.84 1.021a1.899 1.899 0 0 1-.17 2.596c-1.32 1.23-3.37 1.556-4.804.25A15.903 15.903 0 0 1 3.654 9.97a15.286 15.286 0 0 1-1.746-4.474c-.406-1.895.913-3.49 2.63-4.015a1.915 1.915 0 0 1 2.353 1.16l.459 1.224a2 2 0 0 1-.521 2.175Z"/></svg>
